X: 80
T: No_82_Deer_Dance_Song.krn
N: Derived from No_82_Deer_Dance_Song.krn
%%abc-version 2.0
%%abcx-abcm2ps-target-version 5.9.1 (29 Sep 2008)
%%abc-creator hum2abc beta
%%abcx-conversion-date 2019/03/15 08:25:36
%%humdrum-veritas 2999097176
%%humdrum-veritas-data 3712996776
%%linebreak <none>
%%barnumbers 0
L: 1/8
M: 3/4
K: C clef=bass
[K:clef=bass][M:3/4]G,4E,3/D,/ [I:setbarnb 2]| 
[M:2/4]G,2G,2 | 
(3E,D,D, D, z | 
[M:7/8]G,4E,/D,/E,C, | 
[M:3/4]C,2G,,C, G,, z | 
C,4G,,/C,/C,/C,/ | 
C,2G,,G,, G,, z | 
[M:2/4]C,4 | 
G,,C,G,,2 | 
C,G,,/C,/C,2 | 
G,,C,G,,2 | 
G,,G,,z2 | 
[M:3/4]C,4G,,/G,,/C,/C,/ | 
C,2G,,G,, G,, z | 
[M:2/4]C,4 | 
G,,C,G,,2 | 
G,,G,, G,,G,, | 
G,,G,, G,,G,, | 
G,,G,,z2 :|]  



